X:1
T:Title
%%score 1 { 2 | 3 }
L:1/8
Q:1/4=100
M:4/4
K:G
V:1 treble nm="Grand Piano, Soprano"
V:2 treble nm="Choir Pad, Often Had I Heard the Story"
V:3 bass 
V:1
 [GB]3 [GB] [FA]>[EG] [FA]>[FB] | [DG]4 [CE]4 | D2 [DG]2 [EG]2 [GA]2 | [FB]8 | %4
w: By~Victoria~Booth\-Clibborn~Demarest * * * * *||||
 [GB]3 [GB] [FA]>[EG] [FA]>[FB] | [EG]4 [^CE]4 | D2 [DG]2 [DG]2 [DF]2 | [DG]8 | %8
w: ||||
 [Gc]3 [Gc] [Gc]>[Gc] G>[GA] | [GB]4 [DG]4 | [GA]3 [GA] [GA]E[DF][EG] | [FA]8 | %12
w: ||||
 [DB]3 [GB] [FA]>[EG] [FA]>[FB] | [EG]4 [^CE]4 | D2 [DG]2 [DG]2 [DF]2 | [DG]8 | %16
w: ||||
 [Gd]3 [Gd] [Fd]>[FA] [GB]>[Fc] | [FB]4 G4 | [Gc]3 [Gc] [Fc]2 [Fd]2 | [GB]8 | %20
w: ||||
 [Gd]3 [Fd] [=Fe]>[Fd] [Fc]>[FB] | [EB]4 [EA]4 | [FA]3 [FB] [Fc]2 [DF]2 | [DG]8 |] %24
w: ||||
V:2
 D3 D C>B, C>D | B,4 C4 | B,2 B,2 C2[K:treble] E2 | ^D8 | D3 D C>B, C>D | B,4 _B,4 | %6
 B,2 B,2 A,2[K:treble] C2 | B,8 | E3 E E>E E>^D | D4 B,4 | ^C3 C CCDC | D4 C4 | B,3 D C>B, C>D | %13
 B,4 _B,4 | B,2 B,2 A,2 C2 | B,8 | B,3 B, A,>[K:treble]D D>D | ^D4 E4 | E3 E D2 D2 | D8 | %20
 B,3 A, B,>B, C>[K:treble]D | D4 C4 | C3 B, A,2 C2 | B,8 |] %24
V:3
 G,3 G, D,>D, D,>D, | G,4 G,4 | G,2 D,2 C,2 [C,C]2 | [B,,B,]8 | G,3 G, D,>D, D,>D, | E,4 G,4 | %6
 G,2 D,2 D,2 D,2 | [G,,G,]8 | G,3 G, G,>G, G,>G, | G,4 G,4 | E,3 E, A,A,A,A, | D,8 | %12
 G,3 G, D,>D, D,>D, | E,4 G,4 | G,2 D,2 D,2 D,2 | [G,,G,]8 | G,3 G, D,>D, G,>A, | B,4 E,4 | %18
 A,3 A, A,2 D,2 | [G,,G,]8 | G,3 G, G,>G, G,>^G, | A,4 A,4 | D,3 D, D,2 D,2 | [G,,G,]8 |] %24

